x-pack/solutions/observability/plugins/observability_onboarding/public/assets/dotnet.svg

<svg width="16" height="16" viewBox="0 0 16 16" fill="none" xmlns="http://www.w3.org/2000/svg">
<g clip-path="url(#clip0_2274_29569)">
<g clip-path="url(#clip1_2274_29569)">
<path d="M0.451148 11.0944C0.391428 11.0954 0.33216 11.0839 0.277092 11.0607C0.222024 11.0375 0.172351 11.0031 0.131213 10.9597C0.0889455 10.9178 0.0555417 10.8678 0.0330022 10.8127C0.0104626 10.7576 -0.00074907 10.6985 3.88237e-05 10.6389C-0.000387935 10.5794 0.0109889 10.5204 0.0335078 10.4653C0.0560266 10.4103 0.0892385 10.3602 0.131213 10.3181C0.171948 10.274 0.221471 10.2389 0.276581 10.2151C0.331693 10.1914 0.391163 10.1795 0.451148 10.1802C0.511046 10.1801 0.570339 10.1922 0.625366 10.2159C0.680393 10.2397 0.729985 10.2745 0.771084 10.3181C0.813782 10.3599 0.84768 10.4097 0.870764 10.4649C0.893847 10.52 0.905646 10.5792 0.905457 10.6389C0.906015 10.6988 0.894386 10.7581 0.871279 10.8132C0.848174 10.8684 0.814079 10.9182 0.771084 10.9597C0.729596 11.0027 0.679858 11.0368 0.624871 11.0599C0.569883 11.0831 0.510788 11.0948 0.451148 11.0944Z" fill="#621EE5"/>
<path d="M6.80859 11.0144H5.97036L2.97257 6.35019C2.89789 6.23527 2.83568 6.11268 2.787 5.9845H2.76141C2.7899 6.2508 2.80059 6.51872 2.7934 6.78646V11.0144H2.11194V5.1665H2.99816L5.91597 9.74728C6.03754 9.93761 6.11647 10.0681 6.15273 10.1386H6.16872C6.13497 9.85339 6.12106 9.56613 6.12713 9.27894V5.1665H6.80859V11.0144Z" fill="#621EE5"/>
<path d="M11.4215 11.0144H8.32129V5.1665H11.2775V5.78562H9.01875V7.72956H11.1239V8.34546H9.01875V10.3728H11.4247L11.4215 11.0144Z" fill="#621EE5"/>
<path d="M15.9999 5.78562H14.3042V11.0144H13.6228V5.78562H11.9463V5.1665H15.9999V5.78562Z" fill="#621EE5"/>
</g>
</g>
<defs>
<clipPath id="clip0_2274_29569">
<rect width="16" height="16" fill="white"/>
</clipPath>
<clipPath id="clip1_2274_29569">
<rect width="16" height="6" fill="white" transform="translate(0 5.1665)"/>
</clipPath>
</defs>
</svg>

<svg xmlns="http://www.w3.org/2000/svg" width="16" height="16" fill="none"><g clip-path="url(#a)"><g fill="#621EE5" clip-path="url(#b)"><path d="M.451 11.094a.43.43 0 0 1-.32-.134.44.44 0 0 1-.131-.321.45.45 0 0 1 .131-.32.43.43 0 0 1 .32-.139.44.44 0 0 1 .32.138.45.45 0 0 1 .1.495.4.4 0 0 1-.1.147.44.44 0 0 1-.32.134M6.809 11.014H5.97L2.973 6.35a2 2 0 0 1-.186-.365h-.026q.044.4.032.801v4.228h-.681V5.167h.886l2.918 4.58q.182.285.237.392h.016a6 6 0 0 1-.042-.86V5.167h.682zM11.422 11.014h-3.1V5.167h2.956v.619h-2.26V7.73h2.106v.615H9.019v2.028h2.406zM16 5.786h-1.696v5.228h-.681V5.786h-1.677v-.62H16z"/></g></g><defs><clipPath id="a"><path fill="#fff" d="M0 0h16v16H0z"/></clipPath><clipPath id="b"><path fill="#fff" d="M0 5.167h16v6H0z"/></clipPath></defs></svg>
